icons/svg/follow.svg

<?xml version="1.0" encoding="UTF-8"?>
<svg width="20px" height="20px" viewBox="0 0 20 20" version="1.1" xmlns="http://www.w3.org/2000/svg" xmlns:xlink="http://www.w3.org/1999/xlink">
    <!-- Generator: Sketch 57.1 (83088) - https://sketch.com -->
    <title>编组</title>
    <desc>Created with Sketch.</desc>
    <g id="页面1" stroke="none" stroke-width="1" fill="none" fill-rule="evenodd">
        <g id="消息提醒_关注" transform="translate(-597.000000, -104.000000)" fill="#000000" fill-rule="nonzero">
            <g id="编组" transform="translate(597.000000, 104.000000)">
                <path d="M18.8778835,16.3636364 L15.9233381,16.3636364 L15.9233381,19.3181818 C15.9233381,19.6947396 15.6180777,20 15.2415199,20 C14.8649621,20 14.5597017,19.6947396 14.5597017,19.3181818 L14.5597017,16.3636364 L11.6051562,16.3636364 C11.2285985,16.3636364 10.9233381,16.058376 10.9233381,15.6818182 C10.9233381,15.3052604 11.2285985,15 11.6051562,15 L14.5597017,15 L14.5597017,12.0454546 C14.5597017,11.6688968 14.8649621,11.3636364 15.2415199,11.3636364 C15.6180777,11.3636364 15.9233381,11.6688968 15.9233381,12.0454546 L15.9233381,15 L18.8778835,15 C19.2544413,15 19.5597017,15.3052604 19.5597017,15.6818182 C19.5597017,16.058376 19.2544413,16.3636364 18.8778835,16.3636364 L18.8778835,16.3636364 Z M9.5597017,11.8181818 C9.43424715,11.9572727 9.30879262,11.8181818 9.10515625,11.8181818 C5.6897017,11.8181818 1.38197443,15.0931818 1.38197443,18.9722727 C1.37972148,19.3486549 1.07290336,19.6520142 0.696519883,19.6500124 C0.515689483,19.6510882 0.341833474,19.5802956 0.213199859,19.4531964 C0.0845662446,19.3260972 0.0116925307,19.1531032 0.0106108008,18.9722727 C0.0106108008,15.7668182 2.68833807,12.1331818 6.46379262,10.9840909 C4.65879262,9.97636363 3.6506108,8.10454545 3.6506108,5.90909092 C3.6506108,2.66545455 6.27879262,0 9.5597017,0 C12.8406108,0 15.4687926,2.66545455 15.4687926,5.90909092 C15.4687926,9.13545455 12.8165199,11.79 9.5597017,11.8181818 Z M9.5597017,1.36363637 C7.0397017,1.36363637 5.01424717,3.41772729 5.01424717,5.90909092 C5.01424717,8.40045455 7.03970172,10.4545454 9.5597017,10.4545454 C12.0797017,10.4545454 14.1051563,8.40045453 14.1051563,5.90909092 C14.1051563,3.4177273 12.0797017,1.36363637 9.5597017,1.36363637 Z" id="形状"></path>
            </g>
        </g>
    </g>
</svg>

<svg width="20" height="20" xmlns="http://www.w3.org/2000/svg"><path d="M18.878 16.364h-2.955v2.954a.682.682 0 11-1.363 0v-2.954h-2.955a.682.682 0 010-1.364h2.955v-2.955a.682.682 0 111.363 0V15h2.955a.682.682 0 110 1.364zM9.56 11.818c-.126.14-.251 0-.455 0-3.415 0-7.723 3.275-7.723 7.154a.682.682 0 01-.685.678.682.682 0 01-.686-.678c0-3.205 2.677-6.839 6.453-7.988C4.659 9.976 3.65 8.104 3.65 5.91A5.91 5.91 0 019.56 0a5.91 5.91 0 015.909 5.91c0 3.225-2.652 5.88-5.91 5.908zm0-10.454a4.551 4.551 0 00-4.546 4.545 4.551 4.551 0 004.546 4.546 4.551 4.551 0 004.545-4.546A4.551 4.551 0 009.56 1.364z"/></svg>
